ui/icon/svg/file-tray-full-sharp.svg

<svg viewBox="0 0 512 512" xmlns="http://www.w3.org/2000/svg"><path d="m128 128h256v38h-256zm-16 64h288v38h-288z"/><path d="m448 64h-384l-32 192v192h448v-192zm-12 192h-116a64 64 0 0 1 -128 0h-116l22-150h316z"/></svg>

<svg xmlns="http://www.w3.org/2000/svg" class="ionicon" viewBox="0 0 512 512"><title>File Tray Full</title><path d="M128 128h256v38H128zM112 192h288v38H112z"/><path d="M448 64H64L32 256v192h448V256zm-12 192H320a64 64 0 01-128 0H76l22-150h316z"/></svg>
